X: 1165
T:Maid Behind the Bar (A70)
T:Green Mountain, The
N: page A70
N: heptatonic
N: matches 180
M:C|
R:reel
Z:Vancouver, Boston
Z:In O'Neill's as the Green Mountain, with a bit different setting.
E:7
K:D
G|"D"FAAB "A7"AFED|"D"FAAB "A/C#" A2 de|"Bm"fBBA "F#m"Bcde|\
"D"f2 gf "A7"edBA|"D"~A3B "A7"AFED|
"D"FAAB "F#m"ABde|"Bm"fBBA "Em"BcdB|"A7"AFEF "D"D2 z2::\
"D"fa ~a2 "A7"fdde|"D"fdad "B7"fd d2|
"Em"efga "Em/D"beef|"A7/C#"g{f}ebe "A7"ge e2|"D"faaf "A/C#"bfaf|\
"Bm"defd "F#7/Bb"efde|"Bm"fBBA "G"BcdB|"A7"AFEF "D"D2z2:|
